gallery-images/shape4.svg

<svg width="295" height="277" viewBox="0 0 295 277" fill="none" xmlns="http://www.w3.org/2000/svg">
<g clip-path="url(#clip0)">
<path fill-rule="evenodd" clip-rule="evenodd" d="M228.546 813.11L413.808 627.848L28.4346 242.475L-156.827 427.737L228.546 813.11Z" stroke="#231F20" stroke-width="0.01"/>
<path d="M-50.0543 349.249C-50.0543 349.249 -45.2719 353.497 -29.87 368.899C-2.7518 396.017 -19.9876 416.164 -31.3214 431.359C-45.0758 449.802 -45.5632 457.931 -53.9921 480.481C-54.7858 482.603 -55.5491 484.945 -54.5908 487.708C-53.7417 490.158 -51.7005 492.447 -49.7459 494.581C-5.24781 543.164 42.6067 589.006 92.8813 631.21C99.6558 636.896 107.415 642.94 114.465 643.304C119.746 643.578 123.343 640.529 126.287 637.271C149.214 611.918 141.151 580.531 171.009 562.739C191.811 550.342 216.838 559.003 235.446 544.04C243.449 537.602 248.738 526.976 244.66 513.869C241.701 504.368 234.385 495.167 227.239 486.537C189.795 441.309 148.919 397.583 102.911 361.428C92.4107 353.177 81.2956 345.139 69.8985 341.188C58.5551 337.257 47.3233 338.688 42.4045 346.414C33.9083 359.755 32.4767 366.691 25.3095 381.237C20.6915 390.609 19.1438 402.035 26.0731 415.506C27.8748 419.008 30.6843 422.208 33.4362 425.322C61.8888 457.523 91.0086 490.343 125.259 515.395C131.498 519.96 138.159 524.372 144.714 525.957C150.158 527.272 155.027 526.512 159.747 525.747C173.681 523.488 187.817 521.157 198.827 514.466C202.962 511.954 206.807 507.638 204.228 501.52C203.021 498.658 200.624 496.05 198.318 493.577C172.818 466.25 147.297 438.899 120.618 412.683C109.013 401.278 97.0595 389.986 83.9535 380.908C80.1901 378.3 75.8447 375.746 72.4645 376.302C70.5818 376.609 69.3083 377.856 68.0981 379.069C58.3243 388.873 48.6269 398.691 39.4343 409.058C22.1888 428.505 14.1738 441.737 -0.644123 463.377C-3.58884 467.681 -26.6012 495.367 -17.3623 504.609C-2.6112 519.36 44.1948 470.222 53.0451 479.072C61.8955 487.923 15.434 543.234 29.1424 547.227C42.8507 551.219 82.8552 508.882 96.1308 522.158C109.406 535.433 48.4915 576.292 63.0815 581.166C77.6699 586.038 125.745 569.65 145.166 577.022C167.277 585.416 214.661 628.892 227.209 626.512C239.759 624.134 256.278 537.776 217.886 536.842C179.492 535.906 181.422 565.573 211.51 573.727C241.6 581.883 276.614 581.855 297.03 607.545C317.447 633.237 292.958 692.261 307.035 706.337" stroke="#231F20"/>
<path fill-rule="evenodd" clip-rule="evenodd" d="M-503.609 309.918L-291.477 522.05L0.042187 230.531L-212.09 18.3993L-503.609 309.918Z" stroke="#231F20" stroke-width="0.01"/>
<path fill-rule="evenodd" clip-rule="evenodd" d="M364.713 418.08L598.688 139.24L145.956 -240.648L-88.019 38.1923L364.713 418.08Z" stroke="#231F20" stroke-width="0.01"/>
<path d="M29.4607 -101.315L482.193 278.573" stroke="#231F20" stroke-width="0.01"/>
<path d="M474.257 271.458C444.865 244.718 425.465 230.938 418.37 255.096C415.34 265.413 400.089 253.081 384.306 246.503C368.526 239.92 351.679 115.19 337.684 102.459C323.687 89.7269 297.968 76.1083 286.782 73.6347C275.594 71.1629 275.428 69.1701 252.12 50.0992C228.811 31.0283 232.368 26.1033 218.697 14.6321C205.026 3.16088 192.672 7.23087 189.398 7.29136C186.122 7.35023 185.48 15.3201 180.095 16.4535C174.711 17.5814 155.669 0.391711 153.217 -0.0494501C150.766 -0.490612 148.773 7.54779 143.044 7.41788C137.317 7.28604 134.161 -7.05044 127.884 -13.4891C121.604 -19.9238 98.3855 -31.227 122.255 -70.8055C146.124 -110.388 191.994 -57.8759 199.574 -52.9938C207.157 -48.1084 195.559 -31.504 207.675 -23.6748C219.794 -15.8459 226.369 -27.8599 246.162 -19.435C265.956 -11.0085 249.211 22.8663 222.627 53.1561C196.043 83.4459 176.039 139.326 190.986 149.715C205.935 160.102 262.132 153.38 285.334 157.78C300.703 160.693 315.258 171.919 330.883 186.564C342.195 196.852 355.358 211.011 361.186 225.286C367.591 240.979 358.948 255.419 363.144 270.68C373.781 309.355 438.542 313.641 456.311 278.423C466.058 259.098 369.456 183.52 325.999 149.734C308.688 136.278 288.254 134.981 288.447 131.575C290.556 94.6851 266.19 91.1583 266.19 91.1583C234.102 94.7654 232.368 114.647 175.052 109.403C155.871 107.646 140.263 89.872 134.694 92.4279C129.128 94.9853 127.041 103.81 142.76 99.2192C158.479 94.6245 161.681 56.5706 160.713 52.2758C159.75 47.9824 134.12 52.7698 129.303 50.021C124.482 47.2761 127.813 42.0131 120.894 43.1399C113.978 44.2648 109.448 52.6031 98.0956 55.7173C86.7435 58.8314 73.8027 68.0449 77.8988 88.822C75.5028 92.575 79.5146 122.695 110.458 123.996C141.4 125.299 270.416 244.656 265.997 263.14C261.573 281.626 238.605 217.963 210.898 192.245C183.191 166.531 108.64 157 75.0047 132.476C41.3728 107.952 74.0118 44.093 82.2223 46.0517C90.4348 48.0119 80.8717 67.8048 77.8988 88.822C75.7202 104.232 5.14803 131.465 13.1561 77.3265C21.161 23.1918 52.252 16.6541 40.128 -21.7116C32.3562 -46.3201 4.44347 -27.6324 -0.0712394 -10.0616C-5.69883 11.8419 53.6042 -26.0519 60.0754 -41.5564C66.5485 -57.0593 52.9439 -82.0659 45.2717 -88.5036" stroke="#231F20"/>
<path fill-rule="evenodd" clip-rule="evenodd" d="M265.105 602.393L504.107 841.395L890.895 454.607L651.893 215.605L265.105 602.393Z" stroke="#231F20" stroke-width="0.01"/>
<path d="M385.14 722.428C401.143 706.425 413.016 706.774 420.877 705.312C433.547 702.529 445.865 702.537 458.657 704.826C472.811 707.378 485.199 713.27 498.464 718.39C508.727 722.341 519.422 724.104 529.784 719.512C531.513 718.727 533.19 717.837 534.801 716.829C545.712 710.061 543.681 690.954 545.707 682.451C550.489 662.43 555.702 638.728 565.518 620.441C577.663 597.857 605.665 593.696 627.307 584.905C660.95 571.22 661.117 547.397 677.543 517.936C685.239 504.13 693.602 488.397 704.47 475.667C710.886 468.176 728.098 457.415 714.489 448.548C697.21 437.292 676.361 455.991 665.348 467.948C647.107 487.815 644.026 504.351 612.36 495.89C595.531 491.397 568.999 517.299 557.212 526.438C524.822 551.537 498.186 579.536 477.951 615.114C475.137 620.052 445.929 680.784 440.87 678.553C434.184 675.613 459.904 630.172 461.342 625.14C463.041 619.297 463.574 613.178 464.094 607.124C467.307 570.735 476.249 539.632 490.641 505.99C498.373 487.924 525.263 468.115 528.56 459.783C531.097 453.39 535.362 442.071 533.18 432.11C530.8 421.192 521.77 418.762 526.689 406.552C529.894 398.521 537.496 401.095 542.503 401.885C547.522 402.687 549.888 413.487 551.725 416.423C553.548 419.347 554.654 426.162 555.18 429.307C555.706 432.479 550.453 454.622 552.027 455.671C553.613 456.734 559.415 452.531 561.537 450.41C567.6 444.189 576.5 427.841 576.452 415.117C576.407 406.507 572.407 402.508 569.286 399.308C561.798 391.611 551.958 393.19 553.546 377.177C554.223 370.442 558.86 367.824 561.914 368.757C577.092 373.432 590.503 381.658 592.485 385.682C594.453 389.615 606.871 401.011 600.484 413.22C595.615 422.547 592.431 441.493 594.335 447.169C595.385 450.315 595.529 449.804 597.834 448.023C600.113 446.269 605.686 413.289 608.225 407.551C618.653 384.14 577.864 351.837 604.376 335.448C609.72 332.123 617.876 340.28 619.819 344.474C621.735 348.669 627.794 356.3 631.885 360.391C641.983 370.515 639.759 395.949 644.42 409.095C647.23 416.986 630.946 444.494 627.347 451.083C623.774 457.672 626.12 458.5 632.238 455.948C673.309 438.849 667.84 373.638 696.401 345.077C701.744 339.734 706.486 338.269 714.065 343.778C729.811 355.229 707.098 389.613 702.848 402.413C700.964 408.046 700.699 421.766 696.927 426.062C693.183 430.358 731.492 399.654 742.271 371.906C747.883 357.482 755.27 352.298 771.928 335.64" stroke="#231F20"/>
</g>
<defs>
<clipPath id="clip0">
<rect width="295" height="277" fill="white"/>
</clipPath>
</defs>
</svg>

<svg id="Layer_1" data-name="Layer 1" xmlns="http://www.w3.org/2000/svg" xmlns:xlink="http://www.w3.org/1999/xlink" viewBox="0 0 1394.518 930.289"><defs><style>.cls-1,.cls-3,.cls-4{fill:none;}.cls-2{clip-path:url(#clip-path);}.cls-3,.cls-4{stroke:#231f20;}.cls-3{stroke-width:0.01px;}</style><clipPath id="clip-path" transform="translate(503.616 88.887)"><rect class="cls-1" width="295" height="277"/></clipPath></defs><g class="cls-2"><path class="cls-3" d="M228.546,813.11,413.808,627.848,28.435,242.475-156.827,427.737Z" transform="translate(503.616 88.887)"/><path class="cls-4" d="M-50.054,349.249s4.782,4.248,20.184,19.65c27.118,27.118,9.882,47.265-1.451,62.46-13.755,18.443-14.242,26.572-22.671,49.122-.794,2.122-1.557,4.464-.6,7.227.849,2.45,2.89,4.739,4.845,6.873A1513.263,1513.263,0,0,0,92.881,631.21c6.775,5.686,14.534,11.73,21.584,12.094,5.281.274,8.878-2.775,11.822-6.033,22.927-25.353,14.864-56.74,44.722-74.532,20.8-12.4,45.829-3.736,64.437-18.7,8-6.438,13.292-17.064,9.214-30.171-2.959-9.5-10.275-18.7-17.421-27.332-37.444-45.228-78.32-88.954-124.328-125.109-10.5-8.251-21.615-16.289-33.013-20.24-11.343-3.931-22.575-2.5-27.494,5.226-8.5,13.341-9.927,20.277-17.1,34.823-4.618,9.372-6.165,20.8.764,34.269,1.8,3.5,4.611,6.7,7.363,9.816,28.453,32.2,57.573,65.021,91.823,90.073,6.239,4.565,12.9,8.977,19.455,10.562,5.444,1.315,10.313.555,15.033-.21,13.934-2.259,28.07-4.59,39.08-11.281,4.135-2.512,7.98-6.828,5.4-12.946-1.207-2.862-3.6-5.47-5.91-7.943-25.5-27.327-51.021-54.678-77.7-80.894-11.6-11.4-23.558-22.7-36.665-31.775-3.763-2.608-8.108-5.162-11.488-4.606-1.883.307-3.157,1.554-4.367,2.767-9.774,9.8-19.471,19.622-28.664,29.989-17.245,19.447-25.26,32.679-40.078,54.319-2.945,4.3-25.957,31.99-16.718,41.232C-2.611,519.36,44.2,470.222,53.045,479.072s-37.611,64.162-23.9,68.155,53.713-38.345,66.989-25.069-47.639,54.134-33.049,59.008,62.663-11.516,82.084-4.144c22.111,8.394,69.5,51.87,82.043,49.49s29.069-88.736-9.323-89.67-36.464,28.731-6.376,36.885,65.1,8.128,85.52,33.818-4.072,84.716,10.005,98.792" transform="translate(503.616 88.887)"/><path class="cls-3" d="M-503.609,309.918-291.477,522.05.042,230.531-212.09,18.4Z" transform="translate(503.616 88.887)"/><path class="cls-4" d="M474.257,271.458c-29.392-26.74-48.792-40.52-55.887-16.362-3.03,10.317-18.281-2.015-34.064-8.593S351.679,115.19,337.684,102.459s-39.716-26.351-50.9-28.824S275.428,69.17,252.12,50.1s-19.752-24-33.423-35.467-26.025-7.4-29.3-7.341-3.918,8.029-9.3,9.163S155.669.392,153.217-.049s-4.444,7.6-10.173,7.467-8.883-14.468-15.16-20.907-29.5-17.738-5.629-57.316,69.739,12.929,77.319,17.811-4.015,21.49,8.1,29.319,18.694-4.185,38.487,4.24,3.049,42.3-23.535,72.591-46.588,86.17-31.641,96.559,71.146,3.665,94.348,8.065c15.369,2.913,29.924,14.139,45.549,28.784,11.312,10.288,24.475,24.447,30.3,38.722,6.405,15.693-2.238,30.133,1.958,45.394,10.637,38.675,75.4,42.961,93.167,7.743C466.058,259.1,369.456,183.52,326,149.734c-17.311-13.456-37.745-14.753-37.552-18.159,2.109-36.89-22.257-40.417-22.257-40.417-32.088,3.607-33.822,23.489-91.138,18.245-19.181-1.757-34.789-19.531-40.358-16.975s-7.653,11.382,8.066,6.791,18.921-42.648,17.953-46.943-26.593.494-31.41-2.255-1.49-8.008-8.409-6.881S109.448,52.6,98.1,55.717,73.8,68.045,77.9,88.822C75.5,92.575,79.515,122.7,110.458,124S270.416,244.656,266,263.14s-27.392-45.177-55.1-70.895S108.64,157,75.005,132.476s-.993-88.383,7.217-86.424-1.35,21.753-4.323,42.77c-2.179,15.41-72.751,42.643-64.743-11.5s39.1-60.672,26.972-99.038c-7.772-24.608-35.685-5.92-40.2,11.65C-5.7,11.842,53.6-26.052,60.075-41.556s-7.131-40.51-14.8-46.948" transform="translate(503.616 88.887)"/><path class="cls-3" d="M265.105,602.393l239,239L890.9,454.607l-239-239Z" transform="translate(503.616 88.887)"/><path class="cls-4" d="M385.14,722.428c16-16,27.876-15.654,35.737-17.116a94.75,94.75,0,0,1,37.78-.486c14.154,2.552,26.542,8.444,39.807,13.564,10.263,3.951,20.958,5.714,31.32,1.122a42.813,42.813,0,0,0,5.017-2.683c10.911-6.768,8.88-25.875,10.906-34.378,4.782-20.021,10-43.723,19.811-62.01,12.145-22.584,40.147-26.745,61.789-35.536,33.643-13.685,33.81-37.508,50.236-66.969,7.7-13.806,16.059-29.539,26.927-42.269,6.416-7.491,23.628-18.252,10.019-27.119-17.279-11.256-38.128,7.443-49.141,19.4-18.241,19.867-21.322,36.4-52.988,27.942C595.531,491.4,569,517.3,557.212,526.438c-32.39,25.1-59.026,53.1-79.261,88.676-2.814,4.938-32.022,65.67-37.081,63.439-6.686-2.94,19.034-48.381,20.472-53.413,1.7-5.843,2.232-11.962,2.752-18.016,3.213-36.389,12.155-67.492,26.547-101.134,7.732-18.066,34.622-37.875,37.919-46.207,2.537-6.393,6.8-17.712,4.62-27.673-2.38-10.918-11.41-13.348-6.491-25.558,3.205-8.031,10.807-5.457,15.814-4.667s7.385,11.6,9.222,14.538,2.929,9.739,3.455,12.884c.526,3.172-4.727,25.315-3.153,26.364s7.388-3.14,9.51-5.261c6.063-6.221,14.963-22.569,14.915-35.293-.045-8.61-4.045-12.609-7.166-15.809-7.488-7.7-17.328-6.118-15.74-22.131.677-6.735,5.314-9.353,8.368-8.42,15.178,4.675,28.589,12.9,30.571,16.925,1.968,3.933,14.386,15.329,8,27.538-4.869,9.327-8.053,28.273-6.149,33.949,1.05,3.146,1.194,2.635,3.5.854,2.279-1.754,7.852-34.734,10.391-40.472,10.428-23.411-30.361-55.714-3.849-72.1,5.344-3.325,13.5,4.832,15.443,9.026,1.916,4.195,7.975,11.826,12.066,15.917,10.1,10.124,7.874,35.558,12.535,48.7,2.81,7.891-13.474,35.4-17.073,41.988-3.573,6.589-1.227,7.417,4.891,4.865,41.071-17.1,35.6-82.31,64.163-110.871,5.343-5.343,10.085-6.808,17.664-1.3,15.746,11.451-6.967,45.835-11.217,58.635-1.884,5.633-2.149,19.353-5.921,23.649-3.744,4.3,34.565-26.408,45.344-54.156,5.612-14.424,13-19.608,29.657-36.266" transform="translate(503.616 88.887)"/></g></svg>
